assets/icons/qvision/vertical_align_center.svg

<svg xmlns="http://www.w3.org/2000/svg" height="24" viewBox="0 0 24 24" width="24"><path d="M0 0h24v24H0z" fill="none"/><path d="M8 19h3v4h2v-4h3l-4-4-4 4zm8-14h-3V1h-2v4H8l4 4 4-4zM4 11v2h16v-2H4z"/></svg>

<svg width="24" height="24" viewBox="0 0 24 24" fill="none" xmlns="http://www.w3.org/2000/svg">
<g clip-path="url(#clip0_147_2802)">
<path d="M8 19H11V23H13V19H16L12 15L8 19ZM16 5H13V1H11V5H8L12 9L16 5ZM4 11V13H20V11H4Z" fill="#323232"/>
</g>
<defs>
<clipPath id="clip0_147_2802">
<rect width="24" height="24" fill="white"/>
</clipPath>
</defs>
</svg>
